www/assets/icons/view_comfy.svg

<svg xmlns="http://www.w3.org/2000/svg" width="24" height="24" viewBox="0 0 24 24" fill='currentColor'><path d="M2 4v7h20V4zm8 16h12v-7H10zm-8 0h6v-7H2z"/></svg>

<svg width="24" height="24" viewBox="0 0 24 24" xmlns="http://www.w3.org/2000/svg" fill='currentColor'><path d="M2 4V11H22V4H2ZM10 20H22V13H10V20ZM2 20H8V13H2V20Z"/></svg>
